X:596
T:Galloway House
C:Joe Buchanan's Scottish Tome - Page 166.1
I:166 1
C:Traditional
R:Reel
L:1/8
M:C
K:G
(GA) | "G"B2 B2 B2 "GD"AG | "C"E4 G"A7/C#"E2 | "G"D2 D2 E2 "Em"G2 | "A7"B2 A2 A2  (GA) |
"G"B2 B2 "G/D"cBAG | "C"E4 G2 > "A7/C#"E2 | "D7"D2 D2 "D7"E2 F2 | "G"G4 G2 :|
GA | "G"B2 B2 B2 "G/D"AG | "C"c4 e2 > c2 | "G"B2 d2 "Em"B2 G2 | "A7"B2 A2 "D7"A2 GA |
"G"B2 B2 "G/D"cBAG | "C"E4 G2 > "A7/F#"E2 | "G"D2 D2 "D7"E2 F2 | "G"G4 G2 :|

